X: 1
T: Dan Curtin's
M: 12/8
L: 1/8
R: slide
K: Amaj
ABc B2c A3 A2B|ABc BAF E3 E2B|
ABc B2c A3 A2B|1ABc e2c d3 d2B:|2ABc e2c d3 d2e||
K:D
|:f2e d2f a3 a2f|efg f2d g3 g2e|
f2e d2f a3 a2f|1efg f2e d3 d2f:|2efg f2e d3 d2B||
